assets/Fax machine/Flat/fax_machine_flat.svg

<svg xmlns="http://www.w3.org/2000/svg" width="32" height="32" fill="none"><path fill="#321B41" d="M29 13.66H9V6.94c0-.52.42-.94.94-.94h18.12c.52 0 .94.42.94.94v6.72Z"/><path fill="#533566" d="M28.12 30H3.88C2.84 30 2 29.16 2 28.12V11.88C2 10.84 2.84 10 3.88 10H11l8-2 8 2h1.13c1.03 0 1.87.84 1.87 1.88v16.25c0 1.03-.84 1.87-1.88 1.87Z"/><path fill="#E6E6E6" d="M27 10H11V2.94c0-.52.42-.94.94-.94h14.12c.52 0 .94.42.94.94V10Z"/><path fill="#636363" d="M3 25.5C3 27.43 4.57 29 6.5 29s3.5-1.57 3.5-3.5v-14C10 9.57 8.43 8 6.5 8S3 9.57 3 11.5v14Zm22-12c0 .83.67 1.5 1.5 1.5s1.5-.67 1.5-1.5-.67-1.5-1.5-1.5-1.5.67-1.5 1.5Z"/><path fill="#321B41" d="M6.5 28A2.5 2.5 0 0 1 4 25.5v-14a2.5 2.5 0 0 1 5 0v14A2.5 2.5 0 0 1 6.5 28Z"/><path fill="#00F397" d="M21.5 15h-8c-.83 0-1.5-.67-1.5-1.5s.67-1.5 1.5-1.5h8c.83 0 1.5.67 1.5 1.5s-.67 1.5-1.5 1.5Z"/><path fill="#9B9B9B" d="M13.5 20c-.83 0-1.5-.67-1.5-1.5s.67-1.5 1.5-1.5 1.5.67 1.5 1.5-.67 1.5-1.5 1.5Zm4 0c-.83 0-1.5-.67-1.5-1.5s.67-1.5 1.5-1.5 1.5.67 1.5 1.5-.67 1.5-1.5 1.5Zm2.5-1.5c0 .83.67 1.5 1.5 1.5s1.5-.67 1.5-1.5-.67-1.5-1.5-1.5-1.5.67-1.5 1.5ZM13.5 24c-.83 0-1.5-.67-1.5-1.5s.67-1.5 1.5-1.5 1.5.67 1.5 1.5-.67 1.5-1.5 1.5Zm2.5-1.5c0 .83.67 1.5 1.5 1.5s1.5-.67 1.5-1.5-.67-1.5-1.5-1.5-1.5.67-1.5 1.5Zm5.5 1.5c-.83 0-1.5-.67-1.5-1.5s.67-1.5 1.5-1.5 1.5.67 1.5 1.5-.67 1.5-1.5 1.5ZM12 26.5c0 .83.67 1.5 1.5 1.5s1.5-.67 1.5-1.5-.67-1.5-1.5-1.5-1.5.67-1.5 1.5Zm5.5 1.5c-.83 0-1.5-.67-1.5-1.5s.67-1.5 1.5-1.5 1.5.67 1.5 1.5-.67 1.5-1.5 1.5Zm2.5-1.5c0 .83.67 1.5 1.5 1.5s1.5-.67 1.5-1.5-.67-1.5-1.5-1.5-1.5.67-1.5 1.5Z"/><path fill="#635994" d="M25.5 18h2c.28 0 .5-.22.5-.5s-.22-.5-.5-.5h-2c-.28 0-.5.22-.5.5s.22.5.5.5Zm0 2h2c.28 0 .5-.22.5-.5s-.22-.5-.5-.5h-2c-.28 0-.5.22-.5.5s.22.5.5.5Zm2 2h-2c-.28 0-.5-.22-.5-.5s.22-.5.5-.5h2c.28 0 .5.22.5.5s-.22.5-.5.5Zm-2 2h2c.28 0 .5-.22.5-.5s-.22-.5-.5-.5h-2c-.28 0-.5.22-.5.5s.22.5.5.5Zm2 2h-2c-.28 0-.5-.22-.5-.5s.22-.5.5-.5h2c.28 0 .5.22.5.5s-.22.5-.5.5Zm-2 2h2c.28 0 .5-.22.5-.5s-.22-.5-.5-.5h-2c-.28 0-.5.22-.5.5s.22.5.5.5Z"/></svg>

<svg width="32" height="32" viewBox="0 0 32 32" fill="none" xmlns="http://www.w3.org/2000/svg">
<path d="M29 13.66H9V6.94C9 6.42 9.42 6 9.94 6H28.06C28.58 6 29 6.42 29 6.94V13.66Z" fill="#321B41"/>
<path d="M28.12 30H3.88C2.84 30 2 29.16 2 28.12V11.88C2 10.84 2.84 10 3.88 10H11L19 8L27 10H28.13C29.16 10 30 10.84 30 11.88V28.13C30 29.16 29.16 30 28.12 30Z" fill="#533566"/>
<path d="M27 10H11V2.94C11 2.42 11.42 2 11.94 2H26.06C26.58 2 27 2.42 27 2.94V10Z" fill="#E6E6E6"/>
<path d="M3 25.5C3 27.43 4.57 29 6.5 29C8.43 29 10 27.43 10 25.5V11.5C10 9.57 8.43 8 6.5 8C4.57 8 3 9.57 3 11.5V25.5ZM25 13.5C25 14.33 25.67 15 26.5 15C27.33 15 28 14.33 28 13.5C28 12.67 27.33 12 26.5 12C25.67 12 25 12.67 25 13.5Z" fill="#636363"/>
<path d="M6.5 28C5.12 28 4 26.88 4 25.5V11.5C4 10.12 5.12 9 6.5 9C7.88 9 9 10.12 9 11.5V25.5C9 26.88 7.88 28 6.5 28Z" fill="#321B41"/>
<path d="M21.5 15H13.5C12.67 15 12 14.33 12 13.5C12 12.67 12.67 12 13.5 12H21.5C22.33 12 23 12.67 23 13.5C23 14.33 22.33 15 21.5 15Z" fill="#00F397"/>
<path d="M13.5 20C12.67 20 12 19.33 12 18.5C12 17.67 12.67 17 13.5 17C14.33 17 15 17.67 15 18.5C15 19.33 14.33 20 13.5 20ZM17.5 20C16.67 20 16 19.33 16 18.5C16 17.67 16.67 17 17.5 17C18.33 17 19 17.67 19 18.5C19 19.33 18.33 20 17.5 20ZM20 18.5C20 19.33 20.67 20 21.5 20C22.33 20 23 19.33 23 18.5C23 17.67 22.33 17 21.5 17C20.67 17 20 17.67 20 18.5ZM13.5 24C12.67 24 12 23.33 12 22.5C12 21.67 12.67 21 13.5 21C14.33 21 15 21.67 15 22.5C15 23.33 14.33 24 13.5 24ZM16 22.5C16 23.33 16.67 24 17.5 24C18.33 24 19 23.33 19 22.5C19 21.67 18.33 21 17.5 21C16.67 21 16 21.67 16 22.5ZM21.5 24C20.67 24 20 23.33 20 22.5C20 21.67 20.67 21 21.5 21C22.33 21 23 21.67 23 22.5C23 23.33 22.33 24 21.5 24ZM12 26.5C12 27.33 12.67 28 13.5 28C14.33 28 15 27.33 15 26.5C15 25.67 14.33 25 13.5 25C12.67 25 12 25.67 12 26.5ZM17.5 28C16.67 28 16 27.33 16 26.5C16 25.67 16.67 25 17.5 25C18.33 25 19 25.67 19 26.5C19 27.33 18.33 28 17.5 28ZM20 26.5C20 27.33 20.67 28 21.5 28C22.33 28 23 27.33 23 26.5C23 25.67 22.33 25 21.5 25C20.67 25 20 25.67 20 26.5Z" fill="#9B9B9B"/>
<path d="M25.5 18H27.5C27.78 18 28 17.78 28 17.5C28 17.22 27.78 17 27.5 17H25.5C25.22 17 25 17.22 25 17.5C25 17.78 25.22 18 25.5 18ZM25.5 20H27.5C27.78 20 28 19.78 28 19.5C28 19.22 27.78 19 27.5 19H25.5C25.22 19 25 19.22 25 19.5C25 19.78 25.22 20 25.5 20ZM27.5 22H25.5C25.22 22 25 21.78 25 21.5C25 21.22 25.22 21 25.5 21H27.5C27.78 21 28 21.22 28 21.5C28 21.78 27.78 22 27.5 22ZM25.5 24H27.5C27.78 24 28 23.78 28 23.5C28 23.22 27.78 23 27.5 23H25.5C25.22 23 25 23.22 25 23.5C25 23.78 25.22 24 25.5 24ZM27.5 26H25.5C25.22 26 25 25.78 25 25.5C25 25.22 25.22 25 25.5 25H27.5C27.78 25 28 25.22 28 25.5C28 25.78 27.78 26 27.5 26ZM25.5 28H27.5C27.78 28 28 27.78 28 27.5C28 27.22 27.78 27 27.5 27H25.5C25.22 27 25 27.22 25 27.5C25 27.78 25.22 28 25.5 28Z" fill="#635994"/>
</svg>
